lib/functional/weather&nature/star-four.svg

<svg xmlns="http://www.w3.org/2000/svg" fill="none" stroke="currentColor" aria-hidden="true" viewBox="0 0 32 32"><g id="Icon-StarFour"><g clip-path="url(#clip0_13_318)"><g id="size=md (32px)"><g id="StarFour"><path id="Vector" stroke-linecap="round" stroke-linejoin="round" stroke-width="2" d="M19.8376 20.4374L16.9376 28.4124C16.8665 28.6038 16.7386 28.7689 16.571 28.8854C16.4034 29.002 16.2042 29.0645 16.0001 29.0645C15.7959 29.0645 15.5967 29.002 15.4291 28.8854C15.2615 28.7689 15.1336 28.6038 15.0626 28.4124L12.1626 20.4374C12.1119 20.3 12.032 20.1751 11.9284 20.0716C11.8249 19.968 11.7 19.8881 11.5626 19.8374L3.58756 16.9374C3.39618 16.8664 3.23113 16.7385 3.11458 16.5709C2.99802 16.4033 2.93555 16.2041 2.93555 15.9999C2.93555 15.7958 2.99802 15.5966 3.11458 15.429C3.23113 15.2614 3.39618 15.1335 3.58756 15.0624L11.5626 12.1624C11.7 12.1118 11.8249 12.0319 11.9284 11.9283C12.032 11.8247 12.1119 11.6999 12.1626 11.5624L15.0626 3.58744C15.1336 3.39606 15.2615 3.23101 15.4291 3.11445C15.5967 2.9979 15.7959 2.93542 16.0001 2.93542C16.2042 2.93542 16.4034 2.9979 16.571 3.11445C16.7386 3.23101 16.8665 3.39606 16.9376 3.58744L19.8376 11.5624C19.8882 11.6999 19.9681 11.8247 20.0717 11.9283C20.1753 12.0319 20.3001 12.1118 20.4376 12.1624L28.4126 15.0624C28.6039 15.1335 28.769 15.2614 28.8855 15.429C29.0021 15.5966 29.0646 15.7958 29.0646 15.9999C29.0646 16.2041 29.0021 16.4033 28.8855 16.5709C28.769 16.7385 28.6039 16.8664 28.4126 16.9374L20.4376 19.8374C20.3001 19.8881 20.1753 19.968 20.0717 20.0716C19.9681 20.1751 19.8882 20.3 19.8376 20.4374V20.4374Z"/></g></g></g></g><defs><clipPath id="clip0_13_318"><rect width="32" height="32" fill="white" rx="5"/></clipPath></defs></svg>

<svg xmlns="http://www.w3.org/2000/svg" fill="none" stroke="currentColor" aria-hidden="true" viewBox="0 0 32 32"><g clip-path="url(#a)"><path stroke-linecap="round" stroke-linejoin="round" stroke-width="2" d="m19.838 20.437-2.9 7.975a1 1 0 0 1-1.875 0l-2.9-7.975a1.013 1.013 0 0 0-.6-.6l-7.975-2.9a1 1 0 0 1 0-1.875l7.975-2.9a1.011 1.011 0 0 0 .6-.6l2.9-7.975a1 1 0 0 1 1.875 0l2.9 7.975a1.011 1.011 0 0 0 .6.6l7.975 2.9a1 1 0 0 1 0 1.875l-7.975 2.9a1.013 1.013 0 0 0-.6.6v0Z"/></g><defs><clipPath id="a"><rect width="32" height="32" fill="#fff" rx="5"/></clipPath></defs></svg>
